X: 3
T:Trip to Durrow, The
M:C|
L:1/8
R:Reel
K:D
D2 (3FED ADFA|defd BABc|dBBA dBBA|FADE FEEF|!
D2 (3FED ADFA|defd BABc|dBBA FAdB|AFEG FDD2:|!
|:d2de fefg|afdf gfed|cdef gebe|gebe gfef|!
~d3e fefg|afdf gfed|cdef gbag|fdec d2de|!
fdec d2de|fdec B2Bc|dBBA dBBA|FADE FEEF|!
D2 (3FED ADFA|defd BABc|dBBA FAdB|AFEG FDD2:|]!
